src/lib/packages/icons/src/assets/filled/phone-2.svg

<svg width="24" height="24" viewBox="0 0 24 24" fill="none" xmlns="http://www.w3.org/2000/svg">
<path d="M17.6249 14.174L20.268 15.75C20.814 16.076 21.0959 16.71 20.9709 17.334C20.4599 19.893 17.89 21.533 15.373 20.842C9.43395 19.212 4.79484 14.587 3.15884 8.635C2.46684 6.117 4.10495 3.54498 6.66495 3.03298L6.68179 3.02999C7.30679 2.90499 7.94395 3.18799 8.26895 3.73699L9.83194 6.376C10.3879 7.314 10.1118 8.52398 9.20279 9.12798L7.5419 10.233C8.7139 13.04 10.9538 15.289 13.7528 16.459L14.8678 14.794C15.4768 13.887 16.6869 13.615 17.6249 14.174ZM19.7499 9.385C19.7499 8.971 19.4139 8.635 18.9999 8.635H17.0868C17.4858 8.229 17.9679 7.74298 18.5089 7.20098C19.6669 6.03898 19.8069 4.42199 18.8319 3.43999C18.2059 2.80799 17.3629 2.52799 16.5119 2.67199C15.6779 2.81399 14.971 3.33598 14.622 4.06798C14.444 4.44198 14.603 4.88998 14.977 5.06798C15.356 5.24798 15.799 5.086 15.977 4.713C16.114 4.426 16.4148 4.20999 16.7628 4.15099C17.0198 4.10699 17.404 4.13099 17.767 4.49599C18.148 4.88099 18.013 5.57299 17.446 6.14199C15.846 7.74699 14.7609 8.86199 14.7609 8.86199C14.5509 9.07799 14.4898 9.39899 14.6088 9.67699C14.7258 9.95499 14.998 10.135 15.299 10.135H18.9989C19.4139 10.135 19.7499 9.8 19.7499 9.385Z" fill="currentColor"/>
</svg>

<svg xmlns="http://www.w3.org/2000/svg" width="24" height="24" fill="none"><path fill="currentColor" d="m17.625 14.174 2.643 1.576c.546.326.828.96.703 1.584-.511 2.559-3.081 4.199-5.598 3.508A17.442 17.442 0 0 1 3.159 8.635c-.692-2.518.946-5.09 3.506-5.602l.017-.003a1.502 1.502 0 0 1 1.587.707l1.563 2.639a2.05 2.05 0 0 1-.63 2.752l-1.66 1.105a11.602 11.602 0 0 0 6.21 6.226l1.116-1.665a2.053 2.053 0 0 1 2.757-.62Zm2.125-4.789a.75.75 0 0 0-.75-.75h-1.913c.399-.406.88-.892 1.422-1.434 1.158-1.162 1.298-2.779.323-3.761-.626-.632-1.47-.912-2.32-.768-.834.142-1.541.664-1.89 1.396a.75.75 0 0 0 1.355.645c.137-.287.438-.503.786-.562.257-.044.641-.02 1.004.345.381.385.246 1.077-.321 1.646-1.6 1.605-2.685 2.72-2.685 2.72a.747.747 0 0 0-.152.815.748.748 0 0 0 .69.458h3.7a.75.75 0 0 0 .75-.75Z"/></svg>
